images/3233111.svg

<?xml version="1.0" encoding="UTF-8"?>
<svg xmlns="http://www.w3.org/2000/svg" xmlns:xlink="http://www.w3.org/1999/xlink" width="300pt" height="300pt" viewBox="0 0 300 300" version="1.1">
<defs>
<g>
<symbol overflow="visible" id="glyph0-0">
<path style="stroke:none;" d="M 0.453125 1.59375 L 0.453125 -6.34375 L 4.953125 -6.34375 L 4.953125 1.59375 Z M 0.953125 1.09375 L 4.453125 1.09375 L 4.453125 -5.84375 L 0.953125 -5.84375 Z M 0.953125 1.09375 "/>
</symbol>
<symbol overflow="visible" id="glyph0-1">
<path style="stroke:none;" d="M 0.890625 -6.5625 L 2.078125 -6.5625 L 4.984375 -1.078125 L 4.984375 -6.5625 L 5.84375 -6.5625 L 5.84375 0 L 4.65625 0 L 1.75 -5.484375 L 1.75 0 L 0.890625 0 Z M 0.890625 -6.5625 "/>
</symbol>
<symbol overflow="visible" id="glyph0-2">
<path style="stroke:none;" d="M 3.546875 -5.953125 C 2.898438 -5.953125 2.382812 -5.710938 2 -5.234375 C 1.625 -4.753906 1.4375 -4.101562 1.4375 -3.28125 C 1.4375 -2.445312 1.625 -1.789062 2 -1.3125 C 2.382812 -0.832031 2.898438 -0.59375 3.546875 -0.59375 C 4.191406 -0.59375 4.703125 -0.832031 5.078125 -1.3125 C 5.453125 -1.789062 5.640625 -2.445312 5.640625 -3.28125 C 5.640625 -4.101562 5.453125 -4.753906 5.078125 -5.234375 C 4.703125 -5.710938 4.191406 -5.953125 3.546875 -5.953125 Z M 3.546875 -6.6875 C 4.460938 -6.6875 5.195312 -6.375 5.75 -5.75 C 6.300781 -5.132812 6.578125 -4.3125 6.578125 -3.28125 C 6.578125 -2.238281 6.300781 -1.410156 5.75 -0.796875 C 5.195312 -0.179688 4.460938 0.125 3.546875 0.125 C 2.617188 0.125 1.878906 -0.179688 1.328125 -0.796875 C 0.773438 -1.410156 0.5 -2.238281 0.5 -3.28125 C 0.5 -4.3125 0.773438 -5.132812 1.328125 -5.75 C 1.878906 -6.375 2.617188 -6.6875 3.546875 -6.6875 Z M 3.546875 -6.6875 "/>
</symbol>
<symbol overflow="visible" id="glyph0-3">
<path style="stroke:none;" d="M 0.890625 -6.5625 L 4.65625 -6.5625 L 4.65625 -5.8125 L 1.765625 -5.8125 L 1.765625 -3.875 L 4.375 -3.875 L 4.375 -3.140625 L 1.765625 -3.140625 L 1.765625 0 L 0.890625 0 Z M 0.890625 -6.5625 "/>
</symbol>
<symbol overflow="visible" id="glyph0-4">
<path style="stroke:none;" d="M 0.890625 -6.5625 L 1.765625 -6.5625 L 1.765625 -3.875 L 5 -3.875 L 5 -6.5625 L 5.890625 -6.5625 L 5.890625 0 L 5 0 L 5 -3.125 L 1.765625 -3.125 L 1.765625 0 L 0.890625 0 Z M 0.890625 -6.5625 "/>
</symbol>
</g>
</defs>
<g id="surface51693">
<rect x="0" y="0" width="300" height="300" style="fill:rgb(100%,100%,100%);fill-opacity:1;stroke:none;"/>
<path style="fill:none;stroke-width:1.2;stroke-linecap:butt;stroke-linejoin:miter;stroke:rgb(0%,0%,0%);stroke-opacity:1;stroke-miterlimit:10;" d="M 154.5 220.660156 L 132.941406 212.625 "/>
<path style="fill:none;stroke-width:1.2;stroke-linecap:butt;stroke-linejoin:miter;stroke:rgb(0%,0%,0%);stroke-opacity:1;stroke-miterlimit:10;" d="M 172.238281 206.007812 L 154.5 220.660156 "/>
<path style="fill:none;stroke-width:1.2;stroke-linecap:butt;stroke-linejoin:miter;stroke:rgb(0%,0%,0%);stroke-opacity:1;stroke-miterlimit:10;" d="M 132.941406 212.625 L 129.121094 189.9375 "/>
<path style="fill:none;stroke-width:1.2;stroke-linecap:butt;stroke-linejoin:miter;stroke:rgb(0%,0%,0%);stroke-opacity:1;stroke-miterlimit:10;" d="M 129.121094 189.9375 L 125.300781 167.25 "/>
<path style="fill:none;stroke-width:1.2;stroke-linecap:butt;stroke-linejoin:miter;stroke:rgb(0%,0%,0%);stroke-opacity:1;stroke-miterlimit:10;" d="M 129.121094 189.9375 L 146.859375 175.285156 "/>
<path style="fill:none;stroke-width:1.2;stroke-linecap:butt;stroke-linejoin:miter;stroke:rgb(0%,0%,0%);stroke-opacity:1;stroke-miterlimit:10;" d="M 111.382812 204.589844 L 129.121094 189.9375 "/>
<path style="fill:none;stroke-width:1.2;stroke-linecap:butt;stroke-linejoin:miter;stroke:rgb(0%,0%,0%);stroke-opacity:1;stroke-miterlimit:10;" d="M 125.300781 167.25 L 103.742188 159.214844 "/>
<path style="fill:none;stroke-width:1.2;stroke-linecap:butt;stroke-linejoin:miter;stroke:rgb(0%,0%,0%);stroke-opacity:1;stroke-miterlimit:10;" d="M 103.742188 159.214844 L 94.875 166.539062 "/>
<path style="fill:none;stroke-width:1.2;stroke-linecap:butt;stroke-linejoin:miter;stroke:rgb(0%,0%,100%);stroke-opacity:1;stroke-miterlimit:10;" d="M 94.875 166.539062 L 86.003906 173.863281 "/>
<path style="fill:none;stroke-width:1.2;stroke-linecap:butt;stroke-linejoin:miter;stroke:rgb(0%,0%,100%);stroke-opacity:1;stroke-miterlimit:10;" d="M 86.003906 173.863281 L 87.914062 185.207031 "/>
<path style="fill:none;stroke-width:1.2;stroke-linecap:butt;stroke-linejoin:miter;stroke:rgb(0%,0%,0%);stroke-opacity:1;stroke-miterlimit:10;" d="M 87.914062 185.207031 L 89.824219 196.550781 "/>
<path style="fill:none;stroke-width:1.2;stroke-linecap:butt;stroke-linejoin:miter;stroke:rgb(0%,0%,100%);stroke-opacity:1;stroke-miterlimit:10;" d="M 86.003906 173.863281 L 75.226562 169.847656 "/>
<path style="fill:none;stroke-width:1.2;stroke-linecap:butt;stroke-linejoin:miter;stroke:rgb(0%,0%,0%);stroke-opacity:1;stroke-miterlimit:10;" d="M 75.226562 169.847656 L 64.445312 165.828125 "/>
<path style=" stroke:none;fill-rule:nonzero;fill:rgb(100%,100%,100%);fill-opacity:1;" d="M 83.003906 168.363281 L 90.003906 168.363281 L 90.003906 179.363281 L 83.003906 179.363281 Z M 83.003906 168.363281 "/>
<g style="fill:rgb(0%,0%,100%);fill-opacity:1;">
  <use xlink:href="#glyph0-1" x="83.003906" y="177.026367"/>
</g>
<path style="fill:none;stroke-width:1.2;stroke-linecap:butt;stroke-linejoin:miter;stroke:rgb(0%,0%,0%);stroke-opacity:1;stroke-miterlimit:10;" d="M 89.824219 196.550781 L 111.382812 204.589844 "/>
<path style="fill:none;stroke-width:1.2;stroke-linecap:butt;stroke-linejoin:miter;stroke:rgb(0%,0%,0%);stroke-opacity:1;stroke-miterlimit:10;" d="M 62.722656 163.742188 L 53.855469 171.066406 "/>
<path style="fill:none;stroke-width:1.2;stroke-linecap:butt;stroke-linejoin:miter;stroke:rgb(100%,0%,0%);stroke-opacity:1;stroke-miterlimit:10;" d="M 53.855469 171.066406 L 44.984375 178.394531 "/>
<path style="fill:none;stroke-width:1.2;stroke-linecap:butt;stroke-linejoin:miter;stroke:rgb(0%,0%,0%);stroke-opacity:1;stroke-miterlimit:10;" d="M 66.171875 167.914062 L 57.300781 175.242188 "/>
<path style="fill:none;stroke-width:1.2;stroke-linecap:butt;stroke-linejoin:miter;stroke:rgb(100%,0%,0%);stroke-opacity:1;stroke-miterlimit:10;" d="M 57.300781 175.242188 L 48.433594 182.566406 "/>
<path style="fill:none;stroke-width:1.2;stroke-linecap:butt;stroke-linejoin:miter;stroke:rgb(0%,0%,0%);stroke-opacity:1;stroke-miterlimit:10;" d="M 64.445312 165.828125 L 60.628906 143.140625 "/>
<path style=" stroke:none;fill-rule:nonzero;fill:rgb(100%,100%,100%);fill-opacity:1;" d="M 38.707031 174.980469 L 46.707031 174.980469 L 46.707031 185.980469 L 38.707031 185.980469 Z M 38.707031 174.980469 "/>
<g style="fill:rgb(100%,0%,0%);fill-opacity:1;">
  <use xlink:href="#glyph0-2" x="38.707031" y="183.643555"/>
</g>
<path style="fill:none;stroke-width:1.2;stroke-linecap:butt;stroke-linejoin:miter;stroke:rgb(0%,0%,0%);stroke-opacity:1;stroke-miterlimit:10;" d="M 60.628906 143.140625 L 78.367188 128.488281 "/>
<path style="fill:none;stroke-width:1.2;stroke-linecap:butt;stroke-linejoin:miter;stroke:rgb(0%,0%,0%);stroke-opacity:1;stroke-miterlimit:10;" d="M 58.953125 137.5 L 73.144531 125.78125 "/>
<path style="fill:none;stroke-width:1.2;stroke-linecap:butt;stroke-linejoin:miter;stroke:rgb(0%,0%,0%);stroke-opacity:1;stroke-miterlimit:10;" d="M 39.070312 135.105469 L 60.628906 143.140625 "/>
<path style="fill:none;stroke-width:1.2;stroke-linecap:butt;stroke-linejoin:miter;stroke:rgb(0%,0%,0%);stroke-opacity:1;stroke-miterlimit:10;" d="M 78.367188 128.488281 L 74.546875 105.800781 "/>
<path style="fill:none;stroke-width:1.2;stroke-linecap:butt;stroke-linejoin:miter;stroke:rgb(0%,0%,0%);stroke-opacity:1;stroke-miterlimit:10;" d="M 74.546875 105.800781 L 52.988281 97.765625 "/>
<path style="fill:none;stroke-width:1.2;stroke-linecap:butt;stroke-linejoin:miter;stroke:rgb(0%,0%,0%);stroke-opacity:1;stroke-miterlimit:10;" d="M 70.5 110.070312 L 53.253906 103.640625 "/>
<path style="fill:none;stroke-width:1.2;stroke-linecap:butt;stroke-linejoin:miter;stroke:rgb(0%,0%,0%);stroke-opacity:1;stroke-miterlimit:10;" d="M 74.546875 105.800781 L 83.417969 98.476562 "/>
<path style="fill:none;stroke-width:1.2;stroke-linecap:butt;stroke-linejoin:miter;stroke:rgb(20%,80%,80%);stroke-opacity:1;stroke-miterlimit:10;" d="M 83.417969 98.476562 L 92.285156 91.148438 "/>
<path style="fill:none;stroke-width:1.2;stroke-linecap:butt;stroke-linejoin:miter;stroke:rgb(0%,0%,0%);stroke-opacity:1;stroke-miterlimit:10;" d="M 52.988281 97.765625 L 35.25 112.417969 "/>
<path style="fill:none;stroke-width:1.2;stroke-linecap:butt;stroke-linejoin:miter;stroke:rgb(0%,0%,0%);stroke-opacity:1;stroke-miterlimit:10;" d="M 35.25 112.417969 L 39.070312 135.105469 "/>
<path style="fill:none;stroke-width:1.2;stroke-linecap:butt;stroke-linejoin:miter;stroke:rgb(0%,0%,0%);stroke-opacity:1;stroke-miterlimit:10;" d="M 40.96875 113.785156 L 44.027344 131.9375 "/>
<path style=" stroke:none;fill-rule:nonzero;fill:rgb(100%,100%,100%);fill-opacity:1;" d="M 89.285156 85.648438 L 95.285156 85.648438 L 95.285156 96.648438 L 89.285156 96.648438 Z M 89.285156 85.648438 "/>
<g style="fill:rgb(20%,80%,80%);fill-opacity:1;">
  <use xlink:href="#glyph0-3" x="89.285156" y="94.311523"/>
</g>
<path style="fill:none;stroke-width:1.2;stroke-linecap:butt;stroke-linejoin:miter;stroke:rgb(0%,0%,0%);stroke-opacity:1;stroke-miterlimit:10;" d="M 146.859375 175.285156 L 157.640625 179.304688 "/>
<path style="fill:none;stroke-width:1.2;stroke-linecap:butt;stroke-linejoin:miter;stroke:rgb(0%,0%,100%);stroke-opacity:1;stroke-miterlimit:10;" d="M 157.640625 179.304688 L 168.417969 183.320312 "/>
<path style="fill:none;stroke-width:1.2;stroke-linecap:butt;stroke-linejoin:miter;stroke:rgb(0%,0%,100%);stroke-opacity:1;stroke-miterlimit:10;" d="M 168.417969 183.320312 L 170.328125 194.664062 "/>
<path style="fill:none;stroke-width:1.2;stroke-linecap:butt;stroke-linejoin:miter;stroke:rgb(0%,0%,0%);stroke-opacity:1;stroke-miterlimit:10;" d="M 170.328125 194.664062 L 172.238281 206.007812 "/>
<path style="fill:none;stroke-width:1.2;stroke-linecap:butt;stroke-linejoin:miter;stroke:rgb(0%,0%,100%);stroke-opacity:1;stroke-miterlimit:10;" d="M 168.417969 183.320312 L 177.289062 175.996094 "/>
<path style="fill:none;stroke-width:1.2;stroke-linecap:butt;stroke-linejoin:miter;stroke:rgb(0%,0%,0%);stroke-opacity:1;stroke-miterlimit:10;" d="M 177.289062 175.996094 L 186.15625 168.667969 "/>
<path style=" stroke:none;fill-rule:nonzero;fill:rgb(100%,100%,100%);fill-opacity:1;" d="M 165.417969 177.820312 L 172.417969 177.820312 L 172.417969 188.820312 L 165.417969 188.820312 Z M 165.417969 177.820312 "/>
<g style="fill:rgb(0%,0%,100%);fill-opacity:1;">
  <use xlink:href="#glyph0-1" x="165.417969" y="186.483398"/>
</g>
<path style="fill:none;stroke-width:1.2;stroke-linecap:butt;stroke-linejoin:miter;stroke:rgb(0%,0%,0%);stroke-opacity:1;stroke-miterlimit:10;" d="M 188.824219 168.21875 L 186.917969 156.875 "/>
<path style="fill:none;stroke-width:1.2;stroke-linecap:butt;stroke-linejoin:miter;stroke:rgb(100%,0%,0%);stroke-opacity:1;stroke-miterlimit:10;" d="M 186.917969 156.875 L 185.007812 145.53125 "/>
<path style="fill:none;stroke-width:1.2;stroke-linecap:butt;stroke-linejoin:miter;stroke:rgb(0%,0%,0%);stroke-opacity:1;stroke-miterlimit:10;" d="M 183.488281 169.121094 L 181.578125 157.773438 "/>
<path style="fill:none;stroke-width:1.2;stroke-linecap:butt;stroke-linejoin:miter;stroke:rgb(100%,0%,0%);stroke-opacity:1;stroke-miterlimit:10;" d="M 181.578125 157.773438 L 179.667969 146.429688 "/>
<path style="fill:none;stroke-width:1.2;stroke-linecap:butt;stroke-linejoin:miter;stroke:rgb(0%,0%,0%);stroke-opacity:1;stroke-miterlimit:10;" d="M 186.15625 168.667969 L 196.9375 172.6875 "/>
<path style="fill:none;stroke-width:1.2;stroke-linecap:butt;stroke-linejoin:miter;stroke:rgb(0%,0%,100%);stroke-opacity:1;stroke-miterlimit:10;" d="M 196.9375 172.6875 L 207.714844 176.707031 "/>
<path style=" stroke:none;fill-rule:nonzero;fill:rgb(100%,100%,100%);fill-opacity:1;" d="M 178.335938 140.480469 L 186.335938 140.480469 L 186.335938 151.480469 L 178.335938 151.480469 Z M 178.335938 140.480469 "/>
<g style="fill:rgb(100%,0%,0%);fill-opacity:1;">
  <use xlink:href="#glyph0-2" x="178.335938" y="149.143555"/>
</g>
<path style="fill:none;stroke-width:1.2;stroke-linecap:butt;stroke-linejoin:miter;stroke:rgb(0%,0%,100%);stroke-opacity:1;stroke-miterlimit:10;" d="M 207.714844 176.707031 L 216.582031 169.378906 "/>
<path style="fill:none;stroke-width:1.2;stroke-linecap:butt;stroke-linejoin:miter;stroke:rgb(0%,0%,0%);stroke-opacity:1;stroke-miterlimit:10;" d="M 216.582031 169.378906 L 225.453125 162.054688 "/>
<path style=" stroke:none;fill-rule:nonzero;fill:rgb(100%,100%,100%);fill-opacity:1;" d="M 200.714844 171.207031 L 214.714844 171.207031 L 214.714844 182.207031 L 200.714844 182.207031 Z M 200.714844 171.207031 "/>
<g style="fill:rgb(0%,0%,100%);fill-opacity:1;">
  <use xlink:href="#glyph0-1" x="200.714844" y="179.870117"/>
  <use xlink:href="#glyph0-4" x="207.692383" y="179.870117"/>
</g>
<path style="fill:none;stroke-width:1.2;stroke-linecap:butt;stroke-linejoin:miter;stroke:rgb(0%,0%,0%);stroke-opacity:1;stroke-miterlimit:10;" d="M 225.453125 162.054688 L 247.011719 170.089844 "/>
<path style="fill:none;stroke-width:1.2;stroke-linecap:butt;stroke-linejoin:miter;stroke:rgb(0%,0%,0%);stroke-opacity:1;stroke-miterlimit:10;" d="M 229.5 157.785156 L 246.746094 164.214844 "/>
<path style="fill:none;stroke-width:1.2;stroke-linecap:butt;stroke-linejoin:miter;stroke:rgb(0%,0%,0%);stroke-opacity:1;stroke-miterlimit:10;" d="M 221.632812 139.367188 L 225.453125 162.054688 "/>
<path style="fill:none;stroke-width:1.2;stroke-linecap:butt;stroke-linejoin:miter;stroke:rgb(0%,0%,0%);stroke-opacity:1;stroke-miterlimit:10;" d="M 247.011719 170.089844 L 264.75 155.4375 "/>
<path style="fill:none;stroke-width:1.2;stroke-linecap:butt;stroke-linejoin:miter;stroke:rgb(0%,0%,0%);stroke-opacity:1;stroke-miterlimit:10;" d="M 264.75 155.4375 L 260.929688 132.75 "/>
<path style="fill:none;stroke-width:1.2;stroke-linecap:butt;stroke-linejoin:miter;stroke:rgb(0%,0%,0%);stroke-opacity:1;stroke-miterlimit:10;" d="M 259.03125 154.070312 L 255.972656 135.917969 "/>
<path style="fill:none;stroke-width:1.2;stroke-linecap:butt;stroke-linejoin:miter;stroke:rgb(0%,0%,0%);stroke-opacity:1;stroke-miterlimit:10;" d="M 260.929688 132.75 L 239.371094 124.714844 "/>
<path style="fill:none;stroke-width:1.2;stroke-linecap:butt;stroke-linejoin:miter;stroke:rgb(0%,0%,0%);stroke-opacity:1;stroke-miterlimit:10;" d="M 239.371094 124.714844 L 221.632812 139.367188 "/>
<path style="fill:none;stroke-width:1.2;stroke-linecap:butt;stroke-linejoin:miter;stroke:rgb(0%,0%,0%);stroke-opacity:1;stroke-miterlimit:10;" d="M 241.046875 130.355469 L 226.855469 142.074219 "/>
<path style="fill:none;stroke-width:1.2;stroke-linecap:butt;stroke-linejoin:miter;stroke:rgb(0%,0%,0%);stroke-opacity:1;stroke-miterlimit:10;" d="M 239.371094 124.714844 L 235.554688 102.027344 "/>
<path style="fill:none;stroke-width:1.2;stroke-linecap:butt;stroke-linejoin:miter;stroke:rgb(0%,0%,0%);stroke-opacity:1;stroke-miterlimit:10;" d="M 235.554688 102.027344 L 233.644531 90.683594 "/>
<path style="fill:none;stroke-width:1.2;stroke-linecap:butt;stroke-linejoin:miter;stroke:rgb(0%,0%,100%);stroke-opacity:1;stroke-miterlimit:10;" d="M 233.644531 90.683594 L 231.734375 79.339844 "/>
<path style="fill:none;stroke-width:1.2;stroke-linecap:butt;stroke-linejoin:miter;stroke:rgb(0%,0%,0%);stroke-opacity:1;stroke-miterlimit:10;" d="M 240.507812 98.859375 L 238.980469 89.785156 "/>
<path style="fill:none;stroke-width:1.2;stroke-linecap:butt;stroke-linejoin:miter;stroke:rgb(0%,0%,100%);stroke-opacity:1;stroke-miterlimit:10;" d="M 238.980469 89.785156 L 237.453125 80.707031 "/>
<path style="fill:none;stroke-width:1.2;stroke-linecap:butt;stroke-linejoin:miter;stroke:rgb(0%,0%,0%);stroke-opacity:1;stroke-miterlimit:10;" d="M 229.832031 100.65625 L 228.304688 91.582031 "/>
<path style="fill:none;stroke-width:1.2;stroke-linecap:butt;stroke-linejoin:miter;stroke:rgb(0%,0%,100%);stroke-opacity:1;stroke-miterlimit:10;" d="M 228.304688 91.582031 L 226.777344 82.507812 "/>
<path style=" stroke:none;fill-rule:nonzero;fill:rgb(100%,100%,100%);fill-opacity:1;" d="M 228.734375 73.839844 L 235.734375 73.839844 L 235.734375 84.839844 L 228.734375 84.839844 Z M 228.734375 73.839844 "/>
<g style="fill:rgb(0%,0%,100%);fill-opacity:1;">
  <use xlink:href="#glyph0-1" x="228.734375" y="82.50293"/>
</g>
</g>
</svg>

<svg xmlns="http://www.w3.org/2000/svg" xmlns:xlink="http://www.w3.org/1999/xlink" width="300pt" height="300pt" viewBox="0 0 300 300"><defs><symbol overflow="visible"><path d="M.453 1.594v-7.938h4.5v7.938zm.5-.5h3.5v-6.938h-3.5zm0 0"/></symbol><symbol overflow="visible" id="a"><path d="M.89-6.563H2.08l2.906 5.485v-5.484h.86V0H4.656L1.75-5.484V0H.89zm0 0"/></symbol><symbol overflow="visible" id="b"><path d="M3.547-5.953c-.65 0-1.164.242-1.547.72-.375.48-.563 1.13-.563 1.952 0 .835.188 1.49.563 1.967.383.48.898.72 1.547.72.644 0 1.156-.24 1.53-.72.376-.476.564-1.132.564-1.968 0-.822-.187-1.474-.562-1.954-.375-.477-.887-.72-1.53-.72zm0-.734c.914 0 1.648.312 2.203.937.55.617.828 1.438.828 2.47 0 1.042-.277 1.87-.828 2.483-.555.617-1.29.922-2.203.922-.93 0-1.668-.305-2.22-.922C.774-1.41.5-2.237.5-3.28c0-1.033.273-1.853.828-2.47.55-.625 1.29-.938 2.22-.938zm0 0"/></symbol><symbol overflow="visible" id="c"><path d="M.89-6.563h3.766v.75h-2.89v1.938h2.61v.734h-2.61V0H.89zm0 0"/></symbol><symbol overflow="visible" id="d"><path d="M.89-6.563h.876v2.688H5v-2.688h.89V0H5v-3.125H1.766V0H.89zm0 0"/></symbol></defs><g><path fill="#fff" d="M0 0h300v300H0z"/><path d="M154.5 220.66l-21.56-8.035M172.238 206.008L154.5 220.66M132.94 212.625l-3.82-22.688M129.12 189.938l-3.82-22.688M129.12 189.938l17.74-14.653M111.383 204.59l17.738-14.653M125.3 167.25l-21.558-8.035M103.742 159.215l-8.867 7.324" stroke-width="1.2" stroke="#000" stroke-miterlimit="10" fill="none"/><path d="M94.875 166.54l-8.87 7.323M86.004 173.863l1.91 11.344" stroke-width="1.2" stroke="#00f" stroke-miterlimit="10" fill="none"/><path d="M87.914 185.207l1.91 11.344" stroke-width="1.2" stroke="#000" stroke-miterlimit="10" fill="none"/><path d="M86.004 173.863l-10.777-4.015" stroke-width="1.2" stroke="#00f" stroke-miterlimit="10" fill="none"/><path d="M75.227 169.848l-10.782-4.02" stroke-width="1.2" stroke="#000" stroke-miterlimit="10" fill="none"/><path d="M83.004 168.363h7v11h-7zm0 0" fill="#fff"/><use xlink:href="#a" x="83.004" y="177.026" fill="#00f"/><path d="M89.824 196.55l21.56 8.04M62.723 163.742l-8.868 7.324" stroke-width="1.2" stroke="#000" stroke-miterlimit="10" fill="none"/><path d="M53.855 171.066l-8.87 7.33" stroke-width="1.2" stroke="#f00" stroke-miterlimit="10" fill="none"/><path d="M66.172 167.914l-8.87 7.328" stroke-width="1.2" stroke="#000" stroke-miterlimit="10" fill="none"/><path d="M57.3 175.242l-8.866 7.324" stroke-width="1.2" stroke="#f00" stroke-miterlimit="10" fill="none"/><path d="M64.445 165.828L60.63 143.14" stroke-width="1.2" stroke="#000" stroke-miterlimit="10" fill="none"/><path d="M38.707 174.98h8v11h-8zm0 0" fill="#fff"/><use xlink:href="#b" x="38.707" y="183.644" fill="#f00"/><path d="M60.63 143.14l17.737-14.652M58.953 137.5l14.192-11.72M39.07 135.105l21.56 8.036M78.367 128.488l-3.82-22.687M74.547 105.8l-21.56-8.034M70.5 110.07l-17.246-6.43M74.547 105.8l8.87-7.323" stroke-width="1.2" stroke="#000" stroke-miterlimit="10" fill="none"/><path d="M83.418 98.477l8.867-7.33" stroke-width="1.2" stroke="#3cc" stroke-miterlimit="10" fill="none"/><path d="M52.988 97.766L35.25 112.418M35.25 112.418l3.82 22.687M40.97 113.785l3.057 18.153" stroke-width="1.2" stroke="#000" stroke-miterlimit="10" fill="none"/><path d="M89.285 85.648h6v11h-6zm0 0" fill="#fff"/><use xlink:href="#c" x="89.285" y="94.312" fill="#3cc"/><path d="M146.86 175.285l10.78 4.02" stroke-width="1.2" stroke="#000" stroke-miterlimit="10" fill="none"/><path d="M157.64 179.305l10.778 4.015M168.418 183.32l1.91 11.344" stroke-width="1.2" stroke="#00f" stroke-miterlimit="10" fill="none"/><path d="M170.328 194.664l1.91 11.344" stroke-width="1.2" stroke="#000" stroke-miterlimit="10" fill="none"/><path d="M168.418 183.32l8.87-7.324" stroke-width="1.2" stroke="#00f" stroke-miterlimit="10" fill="none"/><path d="M177.29 175.996l8.866-7.328" stroke-width="1.2" stroke="#000" stroke-miterlimit="10" fill="none"/><path d="M165.418 177.82h7v11h-7zm0 0" fill="#fff"/><use xlink:href="#a" x="165.418" y="186.483" fill="#00f"/><path d="M188.824 168.22l-1.906-11.345" stroke-width="1.2" stroke="#000" stroke-miterlimit="10" fill="none"/><path d="M186.918 156.875l-1.91-11.344" stroke-width="1.2" stroke="#f00" stroke-miterlimit="10" fill="none"/><path d="M183.488 169.12l-1.91-11.347" stroke-width="1.2" stroke="#000" stroke-miterlimit="10" fill="none"/><path d="M181.578 157.773l-1.91-11.343" stroke-width="1.2" stroke="#f00" stroke-miterlimit="10" fill="none"/><path d="M186.156 168.668l10.78 4.02" stroke-width="1.2" stroke="#000" stroke-miterlimit="10" fill="none"/><path d="M196.938 172.688l10.777 4.02" stroke-width="1.2" stroke="#00f" stroke-miterlimit="10" fill="none"/><path d="M178.336 140.48h8v11h-8zm0 0" fill="#fff"/><use xlink:href="#b" x="178.336" y="149.144" fill="#f00"/><path d="M207.715 176.707l8.867-7.328" stroke-width="1.2" stroke="#00f" stroke-miterlimit="10" fill="none"/><path d="M216.582 169.38l8.87-7.325" stroke-width="1.2" stroke="#000" stroke-miterlimit="10" fill="none"/><path d="M200.715 171.207h14v11h-14zm0 0" fill="#fff"/><g fill="#00f"><use xlink:href="#a" x="200.715" y="179.87"/><use xlink:href="#d" x="207.692" y="179.87"/></g><path d="M225.453 162.055l21.56 8.035M229.5 157.785l17.246 6.43M221.633 139.367l3.82 22.688M247.012 170.09l17.738-14.653M264.75 155.438l-3.82-22.688M259.03 154.07l-3.057-18.152M260.93 132.75l-21.56-8.035M239.37 124.715l-17.737 14.652M241.047 130.355l-14.192 11.72M239.37 124.715l-3.815-22.688M235.555 102.027l-1.91-11.343" stroke-width="1.2" stroke="#000" stroke-miterlimit="10" fill="none"/><path d="M233.645 90.684l-1.91-11.344" stroke-width="1.2" stroke="#00f" stroke-miterlimit="10" fill="none"/><path d="M240.508 98.86l-1.528-9.075" stroke-width="1.2" stroke="#000" stroke-miterlimit="10" fill="none"/><path d="M238.98 89.785l-1.527-9.078" stroke-width="1.2" stroke="#00f" stroke-miterlimit="10" fill="none"/><path d="M229.832 100.656l-1.527-9.074" stroke-width="1.2" stroke="#000" stroke-miterlimit="10" fill="none"/><path d="M228.305 91.582l-1.528-9.074" stroke-width="1.2" stroke="#00f" stroke-miterlimit="10" fill="none"/><path d="M228.734 73.84h7v11h-7zm0 0" fill="#fff"/><use xlink:href="#a" x="228.734" y="82.503" fill="#00f"/></g></svg>
